packages/radix-icons/outline/15/multiple-variants.svg

<svg width="15" height="15" fill="none" xmlns="http://www.w3.org/2000/svg">
  <path
    fill-rule="evenodd"
    clip-rule="evenodd"
    d="M4.67127 3.14634C4.47601 3.34161 4.47601 3.65819 4.67127 3.85345L7.14615 6.32833C7.34141 6.52359 7.65799 6.52359 7.85325 6.32833L10.3281 3.85345C10.5234 3.65819 10.5234 3.34161 10.3281 3.14634L7.85325 0.671471C7.65799 0.476209 7.34141 0.476209 7.14615 0.671471L4.67127 3.14634ZM7.4997 5.26766L5.73193 3.4999L7.4997 1.73213L9.26747 3.4999L7.4997 5.26766ZM8.67127 7.14634C8.47601 7.34161 8.47601 7.65819 8.67127 7.85345L11.1461 10.3283C11.3414 10.5236 11.658 10.5236 11.8533 10.3283L14.3281 7.85345C14.5234 7.65819 14.5234 7.34161 14.3281 7.14634L11.8533 4.67147C11.658 4.47621 11.3414 4.47621 11.1461 4.67147L8.67127 7.14634ZM11.4997 9.26766L9.73193 7.4999L11.4997 5.73213L13.2675 7.4999L11.4997 9.26766ZM4.67127 11.8535C4.47601 11.6582 4.47601 11.3416 4.67127 11.1463L7.14615 8.67147C7.34141 8.47621 7.65799 8.47621 7.85325 8.67147L10.3281 11.1463C10.5234 11.3416 10.5234 11.6582 10.3281 11.8535L7.85325 14.3283C7.65799 14.5236 7.34141 14.5236 7.14615 14.3283L4.67127 11.8535ZM5.73193 11.4999L7.4997 13.2677L9.26747 11.4999L7.4997 9.73213L5.73193 11.4999ZM0.671273 7.14649C0.476011 7.34175 0.476011 7.65834 0.671273 7.8536L3.14615 10.3285C3.34141 10.5237 3.65799 10.5237 3.85325 10.3285L6.32813 7.8536C6.52339 7.65834 6.52339 7.34175 6.32813 7.14649L3.85325 4.67162C3.65799 4.47636 3.34141 4.47636 3.14615 4.67162L0.671273 7.14649ZM3.4997 9.26781L1.73193 7.50005L3.4997 5.73228L5.26747 7.50005L3.4997 9.26781Z"
    fill="currentColor"
  />
</svg>

<svg width="15" height="15" fill="none" xmlns="http://www.w3.org/2000/svg">
  <path
    fill-rule="evenodd"
    clip-rule="evenodd"
    d="M4.671 3.146a.5.5 0 000 .707l2.475 2.475a.5.5 0 00.707 0l2.475-2.475a.5.5 0 000-.707L7.853.671a.5.5 0 00-.707 0L4.671 3.146zM7.5 5.268L5.732 3.5 7.5 1.732 9.267 3.5 7.5 5.268zM8.67 7.146a.5.5 0 000 .707l2.475 2.475a.5.5 0 00.707 0l2.475-2.475a.5.5 0 000-.707l-2.475-2.475a.5.5 0 00-.707 0L8.671 7.146zM11.5 9.268L9.732 7.5 11.5 5.732 13.268 7.5 11.5 9.268zM4.67 11.853a.5.5 0 010-.707l2.475-2.475a.5.5 0 01.707 0l2.475 2.475a.5.5 0 010 .707l-2.475 2.475a.5.5 0 01-.707 0l-2.475-2.474zm1.06-.353L7.5 13.268 9.267 11.5 7.5 9.732 5.732 11.5zM.672 7.146a.5.5 0 000 .708l2.475 2.474a.5.5 0 00.707 0l2.475-2.474a.5.5 0 000-.708L3.853 4.672a.5.5 0 00-.707 0L.671 7.146zM3.5 9.268L1.732 7.5 3.5 5.732 5.267 7.5 3.5 9.268z"
    fill="currentColor"
  />
</svg>
